X: 125
M: 4/4
L: 1/8
K: A
f |\
e<ea>c e>A {d}c>A | B<Bc>A F>BBf | e<ea>c e>Acf | e<ag>b eaac' |
e<ea>c e>A {d}c>A | B<Bc>A F>BBf | A<cF>A E<AEC | D<FE>C A,AA |]


